X:130
T:Rosetta THO4.130, The
M:6/8
L:1/8
Z:vmp. Peter Dunk 2010/11.from a transcription by Fynn Titford-Mock 2007
B:Thompson's Compleat Collection of 200 Favourite Country Dances Volume IV.
Q:3/8=120
K:G
D|G2 G GBd|G2 G G2 G|A2 A ABc|B2G G2 D|\
G2 G GBd|G2 G G2 G|AcB AGF|G2 G G2:|
|:d|g2 g aga| b2 g g2 d|ded dcB|A2 D D2 d|\
g2 g aga| b2 g g2 d|dcB AGF|G2 G G2 :|
